public/assets/B.svg

<svg width="12" height="16" viewBox="0 0 12 16" fill="none" xmlns="http://www.w3.org/2000/svg">
<path d="M0 0H8C9.45125 0 10.4762 0.28245 11.0748 0.847351C11.6916 1.41225 12 2.15992 12 3.09034V5.13396C12 5.78193 11.9093 6.34683 11.7279 6.82866C11.5646 7.31049 11.22 7.68432 10.6939 7.95016C11.22 8.16615 11.5646 8.49014 11.7279 8.92212C11.9093 9.3541 12 9.88577 12 10.5171V12.9097C12 13.8401 11.6916 14.5877 11.0748 15.1526C10.4762 15.7175 9.45125 16 8 16H0V0ZM7.31973 12.5857V9.96885C7.31973 9.78608 7.26531 9.65317 7.15646 9.57009C7.04762 9.47041 6.87528 9.42056 6.63946 9.42056H4.68027V13.134H6.63946C6.87528 13.134 7.04762 13.0924 7.15646 13.0093C7.26531 12.9097 7.31973 12.7684 7.31973 12.5857ZM7.31973 6.00623V3.41433C7.31973 3.23157 7.26531 3.09865 7.15646 3.01558C7.04762 2.91589 6.87528 2.86604 6.63946 2.86604H4.68027V6.55452H6.63946C6.87528 6.55452 7.04762 6.51298 7.15646 6.42991C7.26531 6.33022 7.31973 6.18899 7.31973 6.00623Z" fill="#EDEDED"/>
</svg>

<svg xmlns="http://www.w3.org/2000/svg" width="12" height="16" fill="none" viewBox="0 0 12 16"><path fill="#ededed" d="M0 0h8q2.177 0 3.075.847Q12 1.695 12 3.09v2.044q0 .972-.272 1.695-.245.722-1.034 1.121.789.324 1.034.972.272.648.272 1.595v2.393q0 1.395-.925 2.243-.899.846-3.075.847H0zm7.32 12.586V9.969q0-.274-.164-.399-.162-.15-.517-.15H4.68v3.714h1.96q.353 0 .516-.125.164-.15.164-.423m0-6.58V3.414q0-.273-.164-.398-.162-.15-.517-.15H4.68v3.689h1.96q.353 0 .516-.125.164-.15.164-.424"/></svg>
